svg/camera_enhance_outline.svg

<svg xmlns="http://www.w3.org/2000/svg" viewBox="0 0 24 24"><path d="m12 10-.94 2.06L9 13l2.06.94L12 16l.94-2.06L15 13l-2.06-.94zm8-5h-3.17L15 3H9L7.17 5H4a2 2 0 0 0-2 2v12a2 2 0 0 0 2 2h16a2 2 0 0 0 2-2V7a2 2 0 0 0-2-2m0 14H4V7h4.05l.59-.65L9.88 5h4.24l1.24 1.35.59.65H20zM12 8a5 5 0 0 0-5 5 5 5 0 0 0 5 5 5 5 0 0 0 5-5 5 5 0 0 0-5-5m0 8a3 3 0 0 1-3-3 3 3 0 0 1 3-3 3 3 0 0 1 3 3 3 3 0 0 1-3 3"/></svg>

<?xml version="1.0" encoding="UTF-8"?><!DOCTYPE svg PUBLIC "-//W3C//DTD SVG 1.1//EN" "http://www.w3.org/Graphics/SVG/1.1/DTD/svg11.dtd"><svg xmlns="http://www.w3.org/2000/svg" xmlns:xlink="http://www.w3.org/1999/xlink" version="1.1" id="mdi-camera-enhance-outline" width="24" height="24" viewBox="0 0 24 24"><path d="M12,10L11.06,12.06L9,13L11.06,13.94L12,16L12.94,13.94L15,13L12.94,12.06L12,10M20,5H16.83L15,3H9L7.17,5H4A2,2 0 0,0 2,7V19A2,2 0 0,0 4,21H20A2,2 0 0,0 22,19V7A2,2 0 0,0 20,5M20,19H4V7H8.05L8.64,6.35L9.88,5H14.12L15.36,6.35L15.95,7H20V19M12,8A5,5 0 0,0 7,13A5,5 0 0,0 12,18A5,5 0 0,0 17,13A5,5 0 0,0 12,8M12,16A3,3 0 0,1 9,13A3,3 0 0,1 12,10A3,3 0 0,1 15,13A3,3 0 0,1 12,16Z" /></svg>
